X:397
T: "Der Zauberer"
N: Z1077
O: Europa, Mitteleuropa, Deutschland, Niederrhein
R: Romanze, Ballade
M: 6/8
L: 1/16
K: E
E2 | =G4A2B4A2 | =d3cB^AB4
B2 | e4e2=c4B2 | =d3=cBA=G4
A2 | B2A2B2A2=G2A2 | F4=GFE4
B2 | B4A2B2A2=G2 | F4E2=D4
D2 | =G4A2B4A2 | =G3FEFE4

@@@ Tune index: 10155
